X: 3285
T: Belharbour, The
R: reel
M: 4/4
K: Gmajor
|:DG~G2 DGBd|~g2gd egdB|A2GB A2BA|GBAF GFEF|
DG~G2 DGBd|g2gd egdB|G2 (3Bcd gedc|1 BGAF G2GE:|2 BGAF ~G2AB||
|:dggf gGBd|g2af gfed|eaag abag|~e2ag edBc|
dggf gGBd|g2af gedB|GA (3Bcd gedc|1 BGAF ~G2GB:|2 BGAF G2GE||

